!!!COM: Mozart, Wolfgang Amadeus
!!!OPR: Quartet in E-flat Major
!!!OTL:
!!!OMV: 1
!!!SCT: K 428
!!!SCA: Chronologisch-thematisches Verzeichnis sämtlicher Tonwerke Wolfgang Amade Mozarts (L. von Köchel; 1862, 2/1905, 3/1937, 1947)
!!!YOR: Breitkopf & Härtel Edition
!!!EED: Frances Bennion
!!!ENC: Frances Bennion
!!!CDT: 1756/1/27/-1791/12/5/
!!!OCY: Österreich
!!!YEC: Copyright (c) 1994, 2000 Center for Computer Assisted Research in the Humanities
!!!YEM: Rights to all derivative editions reserved.
!!!YEM: Refer to licensing agreement for further details.
!!!YEN: United States of America
**kern	**kern	**kern	**kern
*k[b-e-a-]	*k[b-e-a-]	*k[b-e-a-]	*k[b-e-a-]
*E-:	*E-:	*E-:	*E-:
*clefG	*clefG	*clefF	*clefC
*M2/2	*M2/2	*M2/2	*M2/2
*tb48	*tb48	*tb48	*tb48
=1	=1	=1	=1
2e-	2e-	2E-	2E-
2ee-	2ee-	2e-	2e-
=2	=2	=2	=2
2.a	2.a	2.A	2.A
4b-	4b-	4B-	4B-
=3	=3	=3	=3
4b	4b	4B	4B
4cc	4cc	4c	4c
4e	4e	4E	4E
4f	4f	4F	4F
=4	=4	=4	=4
2a-	2a-	2A-	2A-
4g	4g	4G	4G
4r	4r	4r	4r
=5	=5	=5	=5
2.f	32c	4r	4r
.	32d	.	.
.	8.e-	.	.
.	8e-	4A-	4C
.	8e-	.	.
.	2e-	4c	[2AA-
16b-	.	4F	.
16a-	.	.	.
16g	.	.	.
16a-	.	.	.
=6	=6	=6	=6
2.f	32c	4r	4AA-]
.	32d	.	.
.	8.e-	.	.
.	8e-	4A-	4C
.	8e-	.	.
.	[2e-	4c	[2AA-
16b-	.	4F	.
16a-	.	.	.
16g	.	.	.
16a-	.	.	.
=7	=7	=7	=7
4f	2.e-]	4r	4AA-]
4cc	.	4f	4A-
4b-	.	4g	4B-
4a-	4d	4f	4BB-
=8	=8	=8	=8
4g	8r	4e-	4E-
.	8ee-	.	.
4b-	8ee-	4g	2.r
.	8ee-	.	.
2r	8.ee-	2r	.
.	32dd	.	.
.	32cc	.	.
.	8b-	.	.
.	8r	.	.
=9	=9	=9	=9
2.f	32c	4r	4r
.	32d	.	.
.	8.e-	.	.
.	8e-	4A-	4C
.	8e-	.	.
.	2e-	4c	[2AA-
16b-	.	4F	.
16a-	.	.	.
16g	.	.	.
16a-	.	.	.
=10	=10	=10	=10
2.f	32c	4r	4AA-]
.	32d	.	.
.	8.e-	.	.
.	8e-	4A-	4C
.	8e-	.	.
.	[2e-	4c	[2AA-
16b-	.	4F	.
16a-	.	.	.
16g	.	.	.
16a-	.	.	.
=11	=11	=11	=11
4f	4e-]	4r	4AA-]
4cc	4f	2e-	4A-
4b-	4g	.	4B-
4d 4A-	4f 4A-	4B-	4BB-
=12	=12	=12	=12
2e- 2G	2e- 2G	2B-	2E-
2ee-	2e- 2G	2c	2C
=13	=13	=13	=13
2.a	[1e-	2.c	2.FF#
4b-	.	4B-	[4GG
=14	=14	=14	=14
4b	2e-]	4d-	4GG]
4cc	.	4c	4AA-
4e	4r	4r	4r
4f	4f	4c	4AA
=15	=15	=15	=15
2a-	2f	2d	4BB-
.	.	.	4BB
4g	4e-	4e-	8.C
.	.	.	16D
4r	4r	4r	8.E-
.	.	.	16F
=16	=16	=16	=16
4g	8d 8B	[1g	8G
.	4d 4B	.	8G
4.gg	.	.	8G
.	4d 4B	.	8G
.	.	.	8G
16aa-	4d 4B	.	8G
16gg	.	.	.
8aa-	.	.	8G
16gg	8d 8B	.	8G
16ff	.	.	.
=17	=17	=17	=17
8ff	8d 8B	4.g]	8C
8ee-	8e- 8c	.	8C
4.ee-	8e- 8c	.	8C
.	8a-	8e-	8c
.	8a-	8e-	8c
8ee-	8g	8d-	8B-
8ee-	8g	8d-	8B-
8ee-	8a-	8c	8A-
=18	=18	=18	=18
8.ee-	[1b-	4B-	8G
.	.	.	8G
16ff	.	.	.
2ff	.	2d-	8G
.	.	.	8G
.	.	.	8G
.	.	.	8G
4ee-	.	4B-	8G
.	.	.	8G
=19	=19	=19	=19
4dd-	4b-]	[2e-	8A-
.	.	.	8A-
8.cc	8.a-	.	8A-
.	.	.	8A-
16ee-	16cc	.	.
4.ee-	4.cc	8r	8A-
.	.	8e-	8A-
.	.	8e-	8A-
16dd	16b-	8e-	8A-
16cc	16a-	.	.
=20	=20	=20	=20
4cc	4a-	2e-	8E-
.	.	.	8E-
8b-	4g	.	8E-
8gg	.	.	8E-
8ff	4r	2r	8E-
8ee-	.	.	8E-
8dd-	[4g	.	8E
8cc	.	.	8E
=21	=21	=21	=21
4b-	8g]	2c	8F
.	8e	.	8F
8a-	4f	.	8F
8ff	.	.	8F
8ee-	4r	4A-	8F
8dd	.	.	8F
8cc	[4f	4F	8D
8b-	.	.	8D
=22	=22	=22	=22
4a-	8f]	2B-	8E-
.	8d	.	8E-
8g	4e-	.	8E-
8ee-	.	.	8E-
8dd	2r	4g	8E-
8cc	.	.	8E-
8b-	.	4e-	8C
8a-	.	.	8C
=23	=23	=23	=23
16g	2.e-	2.c	1AA-
16f	.	.	.
16a-	.	.	.
16g	.	.	.
16b-	.	.	.
16a-	.	.	.
16cc	.	.	.
16b-	.	.	.
16dd-	.	.	.
16cc	.	.	.
16b-	.	.	.
16a-	.	.	.
16g	4c	4A-	.
16f	.	.	.
16a-	.	.	.
16f	.	.	.
=24	=24	=24	=24
4e-	2B-	4G	4.BB-
8d	.	8F	.
2r	.	8b-	8g
.	2r	8a	8f
.	.	8g	8e-
.	.	8f	8d
8r	.	8e-	8c
=25	=25	=25	=25
1r	4.r	1d	8B-
.	.	.	8B-
.	.	.	8B-
.	8ff	.	8B-
.	8ee-	.	8B-
.	8dd	.	8B-
.	8cc	.	8B-
.	8b-	.	8B-
=26	=26	=26	=26
4.r	16a	4e-	8c
.	16b-	.	.
.	16cc	.	8c
.	16b-	.	.
.	16a	2.r	8c
.	16b-	.	.
8ccc	16cc	.	8c
.	16dd	.	.
8bb-	[2ee-	.	8c
8aa	.	.	8c
8gg	.	.	8B-
8ff	.	.	8B-
=27	=27	=27	=27
16ee	1ee-]	4.r	8A
16ff	.	.	.
16gg	.	.	8A
16ff	.	.	.
16ee	.	.	8A
16ff	.	.	.
16gg	.	8cc	8A
16ff	.	.	.
[2ff	.	8b-	8A
.	.	8a	8A
.	.	8g	8A
.	.	8f	8A
=28	=28	=28	=28
1ff_	2dd	16f	4.A-
.	.	16g	.
.	.	16f	.
.	.	16e	.
.	.	16f	.
.	.	16g	.
.	.	16a-	8F
.	.	16g	.
.	[2b-	[2a-	8E-
.	.	.	8D
.	.	.	8C
.	.	.	8BB-
=29	=29	=29	=29
4ff]	2b-]	4a-]	4BB-
8ee-	.	8g	8E-
4r	.	4r	8D
.	8r	.	8C
8dd	8g	8f	8BB
8dd	8g	8f	8AA
8dd	8g	8f	8GG
=30	=30	=30	=30
4dd	2g	4f	4GG
8cc	.	8e	8C
4r	.	4r	8C
.	8r	.	8BB-
8cc	8f	8e-	8AA
8cc	8f	8e-	8GG
8cc	8f	8e-	8FF
=31	=31	=31	=31
16b-	[1f	8.d	4BB-
16dd	.	.	.
16ff	.	.	.
16dd	.	16B-	.
8bb-	.	8d	4r
8ccc	.	4r	.
8bb-	.	.	2e-
8aa	.	8cc	.
8gg	.	8b-	.
8ff	.	8a	.
=32	=32	=32	=32
4ff	4f]	16b-	2d
.	.	16cc	.
.	.	16dd	.
.	.	16b-	.
8bb-	4.r	8f	.
8ccc	.	8f	.
8bb-	.	[2f	2e-
8aa	8cc	.	.
8gg	8b-	.	.
8ff	8a	.	.
=33	=33	=33	=33
4ff	16b-	4f]	2d
.	16cc	.	.
.	16dd	.	.
.	16b-	.	.
8bb-	8ff	4.r	.
8ccc	8ff	.	.
8bb-	[2ff	.	2e-
8aa	.	8cc	.
8gg	.	8b-	.
8ff	.	8a	.
=34	=34	=34	=34
[1bb-	4ff]	4b-	4d
.	8r	2.r	2.r
.	8ff	.	.
.	8ee-	.	.
.	8dd	.	.
.	8cc	.	.
.	8b-	.	.
=35	=35	=35	=35
1bb-_	1a-	4.r	1r
.	.	8f	.
.	.	8e-	.
.	.	8d	.
.	.	8c	.
.	.	8B-	.
=36	=36	=36	=36
1bb-_	1g	1e-	4.r
.	.	.	8B-
.	.	.	8A-
.	.	.	8G
.	.	.	8F
.	.	.	8E-
=37	=37	=37	=37
4.bb-]	2..e	4.d-	1G-
8aa	.	8c	.
8bb-	.	8d-	.
8ccc	.	8A	.
8ddd-	.	8B-	.
8ee	8b-	8c	.
=38	=38	=38	=38
4ff	8b-	8d	8F
.	8b-	8d	8F
2fff	8b-	8d	8F
.	8b-	8d	8F
.	8b-	8d	8F
.	8b-	8d	8F
8ddd	8b-	8d	8F
16ccc	8b-	8d	8F
16bb-	.	.	.
=39	=39	=39	=39
1ccc	8a	8e-	8F
.	8a	8e-	8F
.	8a	8e-	8F
.	8a	8e-	8F
.	8a	8e-	8F
.	8a	8e-	8F
.	8a	8e-	8F
.	8a	8e-	8F
=40	=40	=40	=40
4bb-	4b-	4d	4BB-
4r	2.r	2.r	2.r
8b-	.	.	.
24cc	.	.	.
24b-	.	.	.
24a	.	.	.
8b-	.	.	.
8cc	.	.	.
=41	=41	=41	=41
4dd	2r	2r	2r
4dd	.	.	.
4dd	2f#	2c	2D
4dd	.	.	.
=42	=42	=42	=42
16dd	4g	4B-	4GG
16ff#	.	.	.
16gg	.	.	.
16ee-	.	.	.
4dd	2.r	2.r	2.r
4b-	.	.	.
8cc	.	.	.
8dd	.	.	.
=43	=43	=43	=43
4..cc	2f	4..A	4..AA
16dd	.	16B-	16BB-
8.cc	8.a	4c	4C
16b-	16g	.	.
8.a	8.f	4c	4C
16g	16e	.	.
=44	=44	=44	=44
8g	8e	4c	4FF
8a	8f	.	.
4f	4A	2.r	2.r
8.f	2r	.	.
16g	.	.	.
8.a	.	.	.
16b	.	.	.
=45	=45	=45	=45
4cc	8e-	[1g 1G	4r
.	8c	.	.
2cc	8e-	.	4C
.	8c	.	.
.	8e-	.	4E-
.	8c	.	.
8.dd	8f	.	4G
.	8d	.	.
16b	.	.	.
=46	=46	=46	=46
4cc	8e-	4.g 4.G]	4.c
.	8g	.	.
2ee-	8cc	.	.
.	8cc	8g-	8B-
.	4cc	4f	4A
12ee-	4r	4r	4r
12gg	.	.	.
12ee-	.	.	.
=47	=47	=47	=47
4dd	4b-	4f	4B-
12dd	4r	4r	4r
12ff	.	.	.
12dd	.	.	.
4cc	4a	4e-	4F
12cc	4r	4r	4r
12ee-	.	.	.
12cc	.	.	.
=48	=48	=48	=48
4b-	4b-	4d	4BB-
8bb-	2.r	4r	2.r
2r	.	.	.
.	.	8B-	.
.	.	24c	.
.	.	24B-	.
.	.	24A	.
.	.	8B-	.
8r	.	8c	.
=49	=49	=49	=49
2r	2r	4d	2r
.	.	4d	.
2f#	2c	4d	2D
.	.	4d	.
=50	=50	=50	=50
4g	4B-	16d	4GG
.	.	16f#	.
.	.	16g	.
.	.	16e-	.
2.r	2.r	4d	2.r
.	.	4B-	.
.	.	8c	.
.	.	8d	.
=51	=51	=51	=51
4..f	2f	4..c	4..AA
16b-	.	16d	16BB-
8.a	4c	8.c	4C
16g	.	16B-	.
8.f	4c	8.A	4C
16e	.	16G	.
=52	=52	=52	=52
8e	4c	8G	4FF
8f	.	8A	.
2.r	2.r	4F	2.r
.	.	8.F	.
.	.	16G	.
.	.	8.A	.
.	.	16B	.
=53	=53	=53	=53
1r	1r	4c	8.C
.	.	.	16D
.	.	2c	8.E-
.	.	.	16F
.	.	.	4.G
.	.	8.d	.
.	.	.	8F
.	.	16B	.
=54	=54	=54	=54
1r	1r	4c	8.E-
.	.	.	16D
.	.	2e-	8.C
.	.	.	16BB-
.	.	.	4AA
.	.	12f#	4r
.	.	12g	.
.	.	12e-	.
=55	=55	=55	=55
1r	1r	4d	4BB-
.	.	12e	4r
.	.	12f	.
.	.	12d	.
.	.	4c	4F
.	.	12d	4r
.	.	12e-	.
.	.	12c	.
=56	=56	=56	=56
1r	2b-	4B-	8BB-
.	.	.	8BB-
.	.	2.r	8BB-
.	.	.	8BB-
.	2a	.	8BB-
.	.	.	8BB-
.	.	.	8BB-
.	.	.	8BB-
=57	=57	=57	=57
2ee-	2g	1r	8BB-
.	.	.	8BB-
.	.	.	8BB-
.	.	.	8BB-
2dd	2f	.	8BB-
.	.	.	8BB-
.	.	.	8BB-
.	.	.	8BB-
=58	=58	=58	=58
[2cc	2e	2g	8BB-
.	.	.	8BB-
.	.	.	8BB-
.	.	.	8BB-
8cc]	2e-	2a	8BB-
16dd	.	.	8BB-
16ee-	.	.	.
8ff	.	.	8BB-
8ff	.	.	8BB-
=59	=59	=59	=59
4b-	4d	2b-	8BB-
.	.	.	8BB-
2.r	2.r	.	8BB-
.	.	.	8BB-
.	.	2a-	8BB-
.	.	.	8BB-
.	.	.	8BB-
.	.	.	8BB-
=60	=60	=60	=60
1r	2ee-	2g-	8BB-
.	.	.	8BB-
.	.	.	8BB-
.	.	.	8BB-
.	2dd-	2f	8BB-
.	.	.	8BB-
.	.	.	8BB-
.	.	.	8BB-
=61	=61	=61	=61
2gg-	1cc-	2e-	8BB-
.	.	.	8BB-
.	.	.	8BB-
.	.	.	8BB-
2ff	.	2d	8AA-
.	.	.	8AA-
.	.	.	8AA-
.	.	.	8AA-
=62	=62	=62	=62
2bb-	2b-	2e-	8GG
.	.	.	8GG
.	.	.	8GG
.	.	.	8GG
2ddd-	2bb-	2e	8GG-
.	.	.	8GG-
.	.	.	8GG-
.	.	.	8GG-
=63	=63	=63	=63
4fff	4ddd	4f	4FF
4r	4r	4r	4r
2a	2e-	2c	2F
=64	=64	=64	=64
16b-	4d	4B-	4BB-
16B-	.	.	.
16c	.	.	.
16d	.	.	.
16e-	2.r	2.r	2.r
16f	.	.	.
16g	.	.	.
16a	.	.	.
16b-	.	.	.
16cc	.	.	.
16dd	.	.	.
16ee-	.	.	.
16ff	.	.	.
16gg	.	.	.
16aa	.	.	.
16bb-	.	.	.
=65	=65	=65	=65
8gg	16a	16f	4e-
.	16b-	16g	.
8ff	16cc	16a	.
.	16b-	16g	.
4.ff	16cc	16a	8.c
.	16dd	16b	.
.	16ee-	16cc	.
.	16dd	16b	16A
.	16ee-	16cc	4F
.	16dd	16b-	.
8ee-	16cc	16a	.
.	16b-	16g	.
8cc	16a	16f	4FF
.	16g	16e-	.
8a	16f	16d	.
.	16e-	16c	.
=66	=66	=66	=66
16b-	16d	4B-	4BB-
16B-	16B-	.	.
16c	16A	.	.
16d	16B-	.	.
16e-	16c	2f	4F
16f	16d	.	.
16g	16e-	.	.
16a	16c	.	.
16b-	16d	.	4D
16cc	16A	.	.
16dd	16B-	.	.
16ee-	16c	.	.
16ff	16d	4f	4BB-
16gg	16e-	.	.
16aa	16f	.	.
16bb-	16g	.	.
=67	=67	=67	=67
8gg	16a	16f	4E-
.	16b-	16g	.
8ff	16cc	16a	.
.	16b-	16g	.
4.ff	16cc	16a	8.C
.	16dd	16b	.
.	16ee-	16cc	.
.	16dd	16b	16AA
.	16ee-	16cc	4FF
.	16dd	16b-	.
8ee-	16cc	16a	.
.	16b-	16g	.
8cc	16a	16f	4F
.	16g	16e-	.
8a	16f	16d	.
.	16e-	16c	.
=68	=68	=68	=68
4b-	4d	4B-	4BB-
4bb- 4b- 4d	4dd 4f 4B-	4b-	4B-
4B-	4B-	4B-	4BB-
4r	4r	4r	4r
=69	=69	=69	=69
2b-	2B-	1r	1r
2bb-	2b-	.	.
=70	=70	=70	=70
2.ee	2.e	1r	1r
4ff	4f	.	.
=71	=71	=71	=71
4ff#	4f#	2E-	2EE-
4gg	4g	.	.
4b	4B	2e-	2E-
4cc	4c	.	.
=72	=72	=72	=72
2.ee-	2.e-	2.A	2.AA
4dd	4d	4B-	4BB-
=73	=73	=73	=73
8r	8r	4B	4BB
4a-	4f	.	.
.	.	4c	4C
8g	8e	.	.
8r	8r	4E	4EE
4dd-	4B-	.	.
.	.	4F	4FF
8cc	8A	.	.
=74	=74	=74	=74
8r	[2d 2B-	2.A-	2.AA-
4f	.	.	.
4f	.	.	.
.	2d 2B]	.	.
4f	.	.	.
.	.	4G	4GG
8f	.	.	.
=75	=75	=75	=75
8e-	8c	8G	8C
16e-	16c	4G	8C
16d	16B	.	.
8e-	8c	.	8C
8f	8d	4G	8C
4g	4e-	.	8C
.	.	4G	8C
4r	4r	.	8C
.	.	[8G	8C
=76	=76	=76	=76
8ee-	8cc	8G]	8C
16ee-	16cc	4G	8C
16dd	16b	.	.
8ee-	8cc	.	8C
8ff	8dd	4G	8C
4gg	4ee-	.	8C
.	.	4G	8C
4r	4r	.	8C
.	.	8G	8C
=77	=77	=77	=77
12r	[1d 1B	[1F	[1C
12A-	.	.	.
12B	.	.	.
12d	.	.	.
12f	.	.	.
12a-	.	.	.
12b	.	.	.
12dd	.	.	.
12ff	.	.	.
12aa-	.	.	.
12ff	.	.	.
12dd	.	.	.
=78	=78	=78	=78
12ff	1d 1B]	1F]	1C]
12dd	.	.	.
12b	.	.	.
12a-	.	.	.
12f	.	.	.
12d	.	.	.
12f	.	.	.
12d	.	.	.
12B	.	.	.
12A-	.	.	.
12G	.	.	.
12f	.	.	.
=79	=79	=79	=79
8e-	8c	8G	8C
16e-	16c	4G	8C
16d	16B	.	.
8e-	8c	.	8C
8f	8d	4G	8C
4g	4e-	.	8C
.	.	4G	8C
4r	4r	.	8C
.	.	[8G	8C
=80	=80	=80	=80
8ee-	8cc	8G]	8C
16ee-	16cc	4G	8C
16dd	16b	.	.
8ee-	8cc	.	8C
8ff	8dd	4G	8C
4gg	4ee-	.	8C
.	.	4G	8C
4r	4r	.	8C
.	.	8G	8C
=81	=81	=81	=81
12r	[1e 1G	[1B-	[1C
12G	.	.	.
12B-	.	.	.
12e	.	.	.
12g	.	.	.
12b-	.	.	.
12ee	.	.	.
12gg	.	.	.
12bb-	.	.	.
12ddd-	.	.	.
12bb-	.	.	.
12gg	.	.	.
=82	=82	=82	=82
12bb-	1e 1G]	1B-]	1C]
12gg	.	.	.
12ee	.	.	.
12dd-	.	.	.
12b-	.	.	.
12g	.	.	.
12b-	.	.	.
12g	.	.	.
12e	.	.	.
12d-	.	.	.
12c	.	.	.
12b-	.	.	.
=83	=83	=83	=83
8a-	8f	8c	8F
16a-	16f	8c	8F
16g	16e	.	.
8a-	8f	8c	8F
8b-	8g	8c	8F
4cc	4a-	8c	8F
.	.	8c	8F
4r	4r	8c	8F
.	.	8c	8F
=84	=84	=84	=84
8aa-	8ff	8c	8F
16aa-	16ff	8c	8F
16gg	16ee	.	.
8aa-	8ff	8c	8F
8bb-	8gg	8c	8F
4ccc	4aa-	8c	8F
.	.	8c	8F
4r	4r	8c	8F
.	.	8c	8F
=85	=85	=85	=85
8a	8f	12r	[1E-
.	.	12C	.
16a	16f	.	.
.	.	12F	.
16g	16e	.	.
8a	8f	12A	.
.	.	12c	.
8b-	8g	.	.
.	.	12f	.
4cc	4a	12a	.
.	.	12cc	.
.	.	12a	.
4r	4r	12ff	.
.	.	12cc	.
.	.	12a	.
=86	=86	=86	=86
8aa	8ff	12cc	1E-]
.	.	12a	.
16aa	16ff	.	.
.	.	12f	.
16gg	16ee	.	.
8aa	8ff	12a	.
.	.	12f	.
8bb-	8gg	.	.
.	.	12c	.
4ccc	4aa	12f	.
.	.	12c	.
.	.	12A	.
4r	4r	12c	.
.	.	12A	.
.	.	12F	.
=87	=87	=87	=87
12r	8A	8F#	[1D
12A	.	.	.
.	16A	16F#	.
12c	.	.	.
.	16G	16E	.
12f#	8A	8F#	.
12a	.	.	.
.	8B-	8G	.
12cc	.	.	.
12ff#	4c	4A	.
12aa	.	.	.
12ff#	.	.	.
12ccc	4r	4r	.
12aa	.	.	.
12ff#	.	.	.
=88	=88	=88	=88
12aa	8a	8f#	1D]
12ff#	.	.	.
.	16a	16f#	.
12cc	.	.	.
.	16g	16e	.
12ff#	8a	8f#	.
12cc	.	.	.
.	8b-	8g	.
12a	.	.	.
12cc	4cc	4a	.
12a	.	.	.
12f#	.	.	.
12e-	4r	4r	.
12d	.	.	.
12cc	.	.	.
=89	=89	=89	=89
8b-	12r	8G	[1GG
.	12B-	.	.
16b-	.	16G	.
.	12d	.	.
16a	.	16F#	.
8b-	12g	8G	.
.	12b-	.	.
8cc	.	8A	.
.	12dd	.	.
4dd	12gg	4B-	.
.	12bb-	.	.
.	12gg	.	.
4r	12ddd	4r	.
.	12bb-	.	.
.	12gg	.	.
=90	=90	=90	=90
8bb-	12bb-	8g	1GG]
.	12gg	.	.
16bb-	.	16g	.
.	12dd	.	.
16aa	.	16f#	.
8bb-	12gg	8g	.
.	12dd	.	.
8ccc	.	8a	.
.	12b-	.	.
4ddd	12dd	4b-	.
.	12b-	.	.
.	12g	.	.
4r	12b-	4r	.
.	12g	.	.
.	12d	.	.
=91	=91	=91	=91
8g	8B-	[1E-	12r
.	.	.	12EE-
16g	16B-	.	.
.	.	.	12GG
16f#	16A	.	.
8g	8B-	.	12BB-
.	.	.	12E-
8a	8A	.	.
.	.	.	12G
4b-	4G	.	12B-
.	.	.	12G
.	.	.	12B-
4r	4r	.	12e-
.	.	.	12B-
.	.	.	12G
=92	=92	=92	=92
8gg	8b-	1E-]	12B-
.	.	.	12G
16gg	16b-	.	.
.	.	.	12E-
16ff#	16a	.	.
8gg	8b-	.	12G
.	.	.	12E-
8aa	8a	.	.
.	.	.	12BB-
4bb-	4g	.	12E-
.	.	.	12BB-
.	.	.	12GG
4r	4r	.	12BB-
.	.	.	12GG
.	.	.	12EE-
=93	=93	=93	=93
4r	4r	1r	4CC#
4bb-	4gg	.	2.r
4bb-	4gg	.	.
4bb-	4gg	.	.
=94	=94	=94	=94
4bb-	4gg	4r	4r
2.r	2.r	4c#	4C#
.	.	4c#	4C#
.	.	4c#	4C#
=95	=95	=95	=95
4r	1r	4d	4D
4dd	.	2.r	2.r
4dd	.	.	.
4dd	.	.	.
=96	=96	=96	=96
4dd	2r	2r	2r
2.r	.	.	.
.	2f# 2A	2c	2D
=97	=97	=97	=97
4r	4g 4G	4B-	4GG
4dd	2.r	2.r	2.r
4dd	.	.	.
4dd-	.	.	.
=98	=98	=98	=98
4cc	2r	2r	2r
2.r	.	.	.
.	2e 2B-	2G	2C
=99	=99	=99	=99
4r	4f 4A	4F	4FF
4cc	2.r	2.r	2.r
4cc	.	.	.
4cc-	.	.	.
=100	=100	=100	=100
4b-	2r	2r	2r
2.r	.	.	.
.	2d 2A-	2F	2BB-
=101	=101	=101	=101
2e-	2e- 2G	2E-	2EE-
2ee-	2ee-	2e-	2e-
=102	=102	=102	=102
2.a	2.a	2.A	2.A
4b-	4b-	4B-	4B-
=103	=103	=103	=103
4b	4b	4B	4B
4cc	4cc	4c	4c
4e	4e	4E	4E
4f	4f	4F	4F
=104	=104	=104	=104
2a-	2a-	2A-	2A-
4g	4g	4G	4G
4r	4r	4r	4r
=105	=105	=105	=105
2.f	32c	4r	4r
.	32d	.	.
.	8.e-	.	.
.	8e-	4A-	4C
.	8e-	.	.
.	2e-	4c	[2AA-
16b-	.	4F	.
16a-	.	.	.
16g	.	.	.
16a-	.	.	.
=106	=106	=106	=106
2.f	32c	4r	4AA-]
.	32d	.	.
.	8.e-	.	.
.	8e-	4A-	4C
.	8e-	.	.
.	[2e-	4c	[2AA-
16b-	.	4F	.
16a-	.	.	.
16g	.	.	.
16a-	.	.	.
=107	=107	=107	=107
4f	2.e-]	4r	4AA-]
4cc	.	4f	4A-
4b-	.	4g	4B-
4a-	4d	4f	4BB-
=108	=108	=108	=108
4g	8r	4e-	4E-
.	8ee-	.	.
4b-	8ee-	4g	4.r
.	8ee-	.	.
2r	8.ee-	2r	.
.	.	.	8e-
.	32dd	.	.
.	32cc	.	.
.	8b-	.	8e-
.	8r	.	8e-
=109	=109	=109	=109
1r	8.cc	8r	8.e-
.	.	8e-	.
.	32b-	.	32d
.	32a-	.	32c
.	8g	8e-	8B-
.	8r	8e-	8r
.	8.a-	8.e-	8.c
.	32g	32d	32B-
.	32f	32c	32A-
.	8e	8B-	8G
.	8r	8r	8r
=110	=110	=110	=110
2.ff	2.f	32c	4A-
.	.	32d	.
.	.	8.e-	.
.	.	8e-	4c
.	.	8e-	.
.	.	2e-	[2A-
16bb-	16b-	.	.
16aa-	16a-	.	.
16gg	16g	.	.
16aa-	16a-	.	.
=111	=111	=111	=111
2.ff	2.f	32c	4A-]
.	.	32d	.
.	.	8.e-	.
.	.	8e-	4c
.	.	8e-	.
.	.	[2e-	[2A-
16bb-	16b-	.	.
16aa-	16a-	.	.
16gg	16g	.	.
16aa-	16a-	.	.
=112	=112	=112	=112
4ff	4f	4e-]	4A-]
4ccc	[4cc 4e-	4f	4A-
4bb-	4b- 4e-]	4g	4B-
4dd	4d 4A-	4f 4B-	4BB-
=113	=113	=113	=113
2ee-	2e- 2G	8g 8B-	8E-
.	.	8f	8D
.	.	8g	8E-
.	.	8a-	8F
2eee-	2ee-	8b-	8G
.	.	8a-	8F
.	.	8b-	8G
.	.	8g	8E-
=114	=114	=114	=114
2.aa	2.a	8c	8F
.	.	8e-	8G-
.	.	8f	8F
.	.	8g-	8E-
.	.	8f	8D
.	.	8e-	8C
4bb-	4b-	8f	8D
.	.	8d	8BB-
=115	=115	=115	=115
4bb	4b	8d	8G
.	.	8a-	8F
4ccc	4cc	8g	8E-
.	.	8f	8D
4ee	4e	8g	8C
.	.	8d-	8BB-
4ff	4f	8c	8AA-
.	.	8B-	8GG
=116	=116	=116	=116
2aa-	2a-	8c	8FF
.	.	8B-	8GG
.	.	8c	8AA-
.	.	8d	8BB-
4gg	8g	8e-	4EE-
.	8g	8e-	.
4r	8a-	8f	4r
.	8b-	8g	.
=117	=117	=117	=117
4.r	1cc	4.a-	8r
.	.	.	8A-
.	.	.	8F
8ccc	.	8g	8E-
8bb-	.	4f	4D
8aa-	.	.	.
8gg	.	[4a-	4F
8ff	.	.	.
=118	=118	=118	=118
4ff	1b-	4a-]	8r
.	.	.	8G
8bb-	.	8g	8E-
8bb-	.	8f	8D
8aa-	.	4e-	4C
8gg	.	.	.
8ff	.	[4g	4E-
8ee-	.	.	.
=119	=119	=119	=119
4ee-	1a-	4g]	8r
.	.	.	8F
8aa-	.	8f	8D
8aa-	.	8e-	8C
8gg	.	4d	2BB-
8ff	.	.	.
8ee-	.	8e-	.
8dd	.	8f	.
=120	=120	=120	=120
8ff	4g	4e-	2C
8ee-	.	.	.
8dd	8r	8r	.
8cc	8g	8e-	.
8cc	8g	8e-	2F
8b-	8f	8d	.
8b-	8f	8d	.
8a	8e-	8c	.
=121	=121	=121	=121
4b-	4d	8B-	8BB-
.	.	8d	8BB-
2.r	8r	8d	8BB-
.	8ff	8d	8BB-
.	8ee-	8d	8BB-
.	8dd	8d	8BB-
.	8cc	8d	8BB-
.	8b-	8d	8BB-
=122	=122	=122	=122
4.r	16a	4e-	8BB-
.	16b-	.	.
.	16cc	.	8BB-
.	16b-	.	.
.	16a	8.c	8BB-
.	16b-	.	.
8ccc	16cc	.	8BB-
.	16dd	16A	.
8bb-	[2ee-	4F	8BB-
8aa	.	.	8BB-
8gg	.	4A	8BB-
8ff	.	.	8BB-
=123	=123	=123	=123
16ff	4ee-]	4.A-	8BB-
16gg	.	.	.
16ff	.	.	8BB-
16ee	.	.	.
16ff	16dd	.	8BB-
16gg	16ee-	.	.
16ff	16dd	8a-	8BB-
16gg	16ee-	.	.
[2aa-	2ff	8g	8BB-
.	.	8f	8BB-
.	.	8e-	8BB-
.	.	8d	8BB-
=124	=124	=124	=124
4aa-]	4.b-	16d-	4.E-
.	.	16e-	.
.	.	16d-	.
.	.	16c	.
8gg	.	16d-	.
.	.	16B-	.
8bb-	8g	16c	8B-
.	.	16d-	.
[2dd-	[2b-	[2e-	8A-
.	.	.	8G
.	.	.	8F
.	.	.	8E-
=125	=125	=125	=125
4dd-]	4b-]	4e-_	4E-
8cc	8a-	8e-]	8A-
4r	4r	4r	8G
.	.	.	8F
8b-	8g	8c	8E
8b-	8g	8c	8D
8b-	8g	8c	8C
=126	=126	=126	=126
4b-	4g	[4c	4C
8a	8f	8c]	8F
4r	4r	4r	8F
.	.	.	8E-
8a-	8f	8B-	8D
8a-	8f	8B-	8C
8a-	8f	8B-	8BB-
=127	=127	=127	=127
8.g	16e-	[1B-	4E-
.	16g	.	.
.	16b-	.	.
16b-	16g	.	.
8g	8ee-	.	4r
4r	8ff	.	.
.	8ee-	.	2A-
8f	8dd	.	.
8e-	8cc	.	.
8d	8b-	.	.
=128	=128	=128	=128
16e-	4b-	4B-]	2G
16f	.	.	.
16g	.	.	.
16e-	.	.	.
8b-	8ee-	4.r	.
8b-	8ff	.	.
[2b-	8ee-	.	2A-
.	8dd	8f	.
.	8cc	8e-	.
.	8b-	8d	.
=129	=129	=129	=129
4b-]	4b-	16e-	2G
.	.	16f	.
.	.	16g	.
.	.	16e-	.
8r	8ee-	8b-	.
8fff	4r	8b-	.
8eee-	.	[2b-	2A-
8ddd	8ff	.	.
8ccc	8ee-	.	.
8bb-	8dd	.	.
=130	=130	=130	=130
[1eee-	4ee-	4b-]	4G
.	8r	2.r	2.r
.	8bb-	.	.
.	8aa-	.	.
.	8gg	.	.
.	8ff	.	.
.	8ee-	.	.
=131	=131	=131	=131
1eee-_	1dd-	4.r	1r
.	.	8b-	.
.	.	8a-	.
.	.	8g	.
.	.	8f	.
.	.	8e-	.
=132	=132	=132	=132
1eee-_	1cc	1a-	4.r
.	.	.	8e-
.	.	.	8d-
.	.	.	8c
.	.	.	8B-
.	.	.	8A-
=133	=133	=133	=133
4.eee-]	2..a	4.g-	1c-
8ddd	.	8f	.
8eee-	.	8g-	.
8fff	.	8d	.
8ggg-	.	8e-	.
8aa	8ee-	8f	.
=134	=134	=134	=134
4bb-	8ee-	8g	8B-
.	8ee-	8g	8B-
2bbb-	8ee-	8g	8B-
.	8ee-	8g	8B-
.	8ee-	8g	8B-
.	8ee-	8g	8B-
8ggg	8ee-	8g	8B-
16fff	8ee-	8g	8B-
16eee-	.	.	.
=135	=135	=135	=135
1fff	8dd	8a-	8B-
.	8dd	8a-	8B-
.	8dd	8a-	8B-
.	8dd	8a-	8B-
.	8dd	8a-	8B-
.	8dd	8a-	8B-
.	8dd	8a-	8B-
.	8dd	8a-	8B-
=136	=136	=136	=136
4eee-	4ee-	4g	4E-
4r	2.r	2.r	2.r
8ee-	.	.	.
24ff	.	.	.
24ee-	.	.	.
24dd	.	.	.
8ee-	.	.	.
8ff	.	.	.
=137	=137	=137	=137
4gg	2r	2r	2r
4gg	.	.	.
4gg	2b	2f	2G
4gg	.	.	.
=138	=138	=138	=138
16gg	4cc	4e-	4C
16bb	.	.	.
16ccc	.	.	.
16aa-	.	.	.
4gg	2.r	2.r	2.r
4ee-	.	.	.
8ff	.	.	.
8gg	.	.	.
=139	=139	=139	=139
4..ff	2b-	4..d	4..D
16gg	.	16e-	16E-
8.ff	8.dd	4f	4F
16ee-	16cc	.	.
8.dd	8.b-	4f	4F
16cc	16a	.	.
=140	=140	=140	=140
8cc	8a	4f	4BB-
8dd	8b-	.	.
4b-	4d	2.r	2.r
8.b-	2r	.	.
16cc	.	.	.
8.dd	.	.	.
16ee	.	.	.
=141	=141	=141	=141
4ff	8a-	[1cc	4r
.	8f	.	.
2ff	8a-	.	4F
.	8f	.	.
.	8a-	.	4A-
.	8f	.	.
8.gg	8b-	.	4c
.	8g	.	.
16ee	.	.	.
=142	=142	=142	=142
4ff	8a-	4.cc]	4.f
.	8cc	.	.
2aa-	8ff	.	.
.	8ff	8cc-	8e-
.	4ff	4b-	4d
12aa-	4r	4r	4r
12ccc	.	.	.
12aa-	.	.	.
=143	=143	=143	=143
4gg	4ee-	4b-	4e-
12gg	4r	4r	4r
12bb-	.	.	.
12gg	.	.	.
4ff	4dd	4a-	4B-
12ff	4r	4r	4r
12aa-	.	.	.
12ff	.	.	.
=144	=144	=144	=144
4ee-	4ee-	4g	4E-
8eee-	4r	2.r	2.r
2r	.	.	.
.	8e-	.	.
.	24f	.	.
.	24e-	.	.
.	24d	.	.
.	8e-	.	.
8r	8f	.	.
=145	=145	=145	=145
2r	4g	2r	2r
.	4g	.	.
2B	4g	2F	2GG
.	4g	.	.
=146	=146	=146	=146
4c	16g	4E-	4CC
.	16b	.	.
.	16cc	.	.
.	16a-	.	.
2.r	4g	2.r	2.r
.	4e-	.	.
.	8f	.	.
.	8g	.	.
=147	=147	=147	=147
2B-	4..f	4..D	4..DD
.	16g	16E-	16EE-
8.d	8.f	4F	4FF
16c	16e-	.	.
8.B-	8.d	4F	4FF
16A	16c	.	.
=148	=148	=148	=148
8A	8c	8E-	4BB-
8B-	8d	8D	.
2.r	4B-	4D	2.r
.	8.B-	2r	.
.	16c	.	.
.	8.d	.	.
.	16e	.	.
=149	=149	=149	=149
1r	4f	8.F	1r
.	.	16G	.
.	2f	8.A-	.
.	.	16B-	.
.	.	4.c	.
.	8.g	.	.
.	.	8B-	.
.	16e	.	.
=150	=150	=150	=150
1r	4f	8.A-	1r
.	.	16G	.
.	2a-	8.F	.
.	.	16E-	.
.	.	4D	.
.	12b	4r	.
.	12cc	.	.
.	12a-	.	.
=151	=151	=151	=151
1r	4g	4E-	1r
.	12a	4r	.
.	12b-	.	.
.	12g	.	.
.	4f	4B-	.
.	12g	4r	.
.	12a-	.	.
.	12f	.	.
=152	=152	=152	=152
1r	4e-	2e-	8E-
.	.	.	8E-
.	2.r	.	8E-
.	.	.	8E-
.	.	2d	8E-
.	.	.	8E-
.	.	.	8E-
.	.	.	8E-
=153	=153	=153	=153
2a-	1r	2c	8E-
.	.	.	8E-
.	.	.	8E-
.	.	.	8E-
2g	.	2B-	8E-
.	.	.	8E-
.	.	.	8E-
.	.	.	8E-
=154	=154	=154	=154
[2f	2c	2A	8E-
.	.	.	8E-
.	.	.	8E-
.	.	.	8E-
8f]	2d	2A-	8E-
16g	.	.	8E-
16a-	.	.	.
8b-	.	.	8E-
8b-	.	.	8E-
=155	=155	=155	=155
4e-	2e-	4G	8E-
.	.	.	8E-
2.r	.	2.r	8E-
.	.	.	8E-
.	2d-	.	8E-
.	.	.	8E-
.	.	.	8E-
.	.	.	8E-
=156	=156	=156	=156
1r	2c-	2a-	8E-
.	.	.	8E-
.	.	.	8E-
.	.	.	8E-
.	2B-	2g-	8E-
.	.	.	8E-
.	.	.	8E-
.	.	.	8E-
=157	=157	=157	=157
2cc-	2A-	1f-	8E-
.	.	.	8E-
.	.	.	8E-
.	.	.	8E-
2b-	2G	.	8D-
.	.	.	8D-
.	.	.	8D-
.	.	.	8D-
=158	=158	=158	=158
2ee-	2A-	2e-	8C
.	.	.	8C
.	.	.	8C
.	.	.	8C
2gg-	2ee-	2a	8C-
.	.	.	8C-
.	.	.	8C-
.	.	.	8C-
=159	=159	=159	=159
4bb-	4gg	4ee-	4BB-
4r	4r	4r	4r
2d	2A-	2F	2BB-
=160	=160	=160	=160
8e-	4G	4E-	4EE-
16f	.	.	.
16g	.	.	.
16a-	2.r	2.r	4B-
16b-	.	.	.
16cc	.	.	.
16dd	.	.	.
16ee-	.	.	4G
16ff	.	.	.
16gg	.	.	.
16aa-	.	.	.
8bb-	.	.	4E-
8bb-	.	.	.
=161	=161	=161	=161
8bb-	16d	16B-	4A-
.	16e-	16c	.
8ff	16f	16d	.
.	16e	16c#	.
4.aa-	16f	16d	8.F
.	16g	16e	.
.	16a-	16f	.
.	16g	16e	16D
.	8a-	8f	4BB-
16bb-	4a-	4f	.
16aa-	.	.	.
16gg	.	.	4B-
16ff	.	.	.
16ee-	8a-	8f	.
16dd	.	.	.
=162	=162	=162	=162
16ee-	16g	4e-	4E-
16e-	16e-	.	.
16f	16d	.	.
16g	16e-	.	.
16a-	16f	[4B-	4BB-
16b-	16g	.	.
16cc	16a-	.	.
16dd	16f	.	.
16ee-	4b-	16B-]	4GG
16ff	.	16d	.
16gg	.	16e-	.
16aa-	.	16f	.
8bb-	4r	16g	4EE-
.	.	16f	.
8bb-	.	16g	.
.	.	16e-	.
=163	=163	=163	=163
8bb-	16B-	16d	4A-
.	16c	16e-	.
8ff	16d	16f	.
.	16c#	16e	.
4.aa-	16d	16f	8.F
.	16e	16g	.
.	16f	16a-	.
.	16e	16g	16D
.	8f	8a-	4BB-
16bb-	4f	4a-	.
16aa-	.	.	.
16gg	.	.	4B-
16ff	.	.	.
16ee-	8f	8a-	.
16dd	.	.	.
=164	=164	=164	=164
4ee-	4e-	4g	4E-
8.e- 8.G	8.e- 8.G	8.B-	4EE-
16e- 16G	16e- 16G	16B-	.
4e- 4G	4e- 4G	4B-	4EE-
4r	4r	4r	4r
==	==	==	==
*-	*-	*-	*-
!!!RWG1: This file contains only pitch and duration data.
!!!RWG2: Transposing instruments are not transposed.
!!!RWG3: Spines may have incompatible meters.
!!!RWG4: Durations of rests and tied notes may be interpreted.
!!!RWG: Key is interpreted using the Humdrum key tool.
!!!AFT: stage1
!!!END: 1997/04/15
!!format changes:
!!content changes:
!!public access: complete
!!!KEY: 884746298
!!!EMD: Converted from MuseData to Humdrum Dec 16, 2000, by Andreas Kornstaedt using muse2kern.
